X:1
T:Ten Thousand Miles
M:4/4
L:1/4
K:C
A/2-B/2| c d Bc/2-B/2| A A E E| c d Bc/2-B/2| A3| A/2B/2| c/2c/2 d Bc/2-B/2|\
 A A E D/2C/2| D D E A|A/2-G/2^F/2-E/2 D| C/2D/2| E3/2 D/2 c B| A3||\
